!!!SOCIAL_FUNCTION:	war songs
!!!PDT:	1922
!!!OTL: No_68_War_Song_(b).krn
!!!REG: Southwest
!!!LANG: Non-Tone
!!!LING_GROUP: Uto-Aztecan
**kern
*staff1
=1-
*clefF4
*k[f#c#]
*M3/4
2d\
4B\
=2||
*M2/4
16A\LK
8.A\J
4A\
=3
8.e\L
16d\Jk
8.e\L
16d\Jk
=4
4e\
4d\
=5||
*M3/4
4e\
8f#\L
8e\J
4d\
=6
2d\
4B\
=7||
*M2/4
8A\
8r
4B\
=8||
*M3/4
2.d\
=9||
*M2/4
4B\
16A\LK
8.A\J
=10
4B\
8B\L
16B\L
16A\JJ
=11
8F#\L
8D\J
4D\
==
*-
